X:1
T:Title
%%score { ( 1 3 ) | ( 2 4 ) }
L:1/8
M:6/4
K:F
V:1 treble nm="Grand Piano"
V:3 treble 
V:2 bass 
V:4 bass 
V:1
 z4[Q:1/4=100] [A,C]2 [A,DF]4 [B,DG]2 | [A,F]2 E2 D2 C2 D2 E2 | [A,CF]4 [CFA]2 [CFc]4 [Fd]2 | %3
 [Ec]4 [A,CA]2 [B,DF]4 [CEA]2 | [A,DF]4 [A,CA]2 [A,DF]2 [B,DG]4 | [A,CF]4 D2 F2 D4 | z6 z2 G4 | %7
 .[A,F]6 z6 | [B,F]6 [A,F]6 |] %9
V:2
 z4 F,2 D,4 G,,2 | z4 A,2- A,2 z2 z2 | F,,4 F,,2 A,,4 [B,,B,]2 | [C,G,]4 F,2 B,,4 A,,2 | %4
 D,4 F,2 D,2 G,,4 | A,,4 [B,,F,B,]2 [B,,D,B,]2 [B,,F,B,]4 | z6 .[D,A,]6 | .[F,,F,]6 z6 | %8
 [B,,D,]6 [F,,F,]6 |] %9
V:3
 x12 | .C6 z6 | x12 | x12 | x12 | x12 | C4 C2 .F4 E,2 | x12 | x12 |] %9
V:4
 x12 | A,,2 [C,G,]2 [D,F,]2 [A,,E,]2 [D,F,A,]2 [C,G,C]2 | x12 | x12 | x12 | x12 | %6
 [C,E,G,]4 [F,A,]2 .F,2- .[C,F,C]4 | x12 | x12 |] %9

